!!!OTL: SAGT WO SIND DIE VEILCHEN HIN
!!!ARE: Europa, Mitteleuropa, Deutschland
!!!SCT: F0311
!!!YEM: Copyright 1995, estate of Helmut Schaffrath.
**kern
*ICvox
*Ivox
!! Mixed meters:  2/4; 6/8
*M6/8
*k[b-]
*F:
=1
{8.f
16f
8cc
8cc
=2
8ff
8ff
4ee}
=3
{8dd
8cc
8ff
16a
16dd
=4
4b-
4a}
=5
{8g
8a
8b-
16a
16g
=6
8.cc
16b-
4a}
=7
{8g
8f
8b-
8a
=8
4a
8g
8r}
=9
{4f
8c
8a-
8g
8f
=10
4ff
8ff
4ee
8r}
=11
{4g
8a
4b-
8a
=12
4.d
4.e
=13
4.f
4.r}
==
!!!AGN: Jugend - Lied, Moral, Vergaenglichkeit
!!!ONB: ESAC (Essen Associative Code) Database: FINK
!!!AMT: irregular
!!!AIN: vox
!!!EED: Helmut Schaffrath
!!!EEV: 1.0
*-
